images/client2.svg

<svg width="170" height="90" fill="none" xmlns="http://www.w3.org/2000/svg"><rect x=".5" y=".5" width="169" height="89" rx="3.5" stroke="#AFB1B8"/><path d="M81.9769 21.9345h.1366c.253 0 .5262.0254.7969.0483a22.6398 22.6398 0 013.5416.534v-2.8633a21.0929 21.0929 0 00-3.6555-.5823c-.468-.0356-.9663-.0585-1.4773-.0712h-.4275a29.7943 29.7943 0 00-7.3363.946 29.7285 29.7285 0 00-7.7839 3.1659v28.3967a31.6329 31.6329 0 017.4197-2.8913 32.3596 32.3596 0 016.2281-.9561h.0835a24.444 24.444 0 011.065-.0306v-2.909a34.3289 34.3289 0 00-8.0951 1.0756c-.979.2543-1.9251.5289-2.813.8341l-1.0119.3433V24.8334l.4326-.2085a28.2757 28.2757 0 0110.516-2.6828.6296.6296 0 01.0911 0c.4022-.0203.807-.0305 1.2042-.0305h.4553c.21.0051.4199.0102.6299.0229z" fill="#AFB1B8"/><path d="M89.1108 24.9326c-.6653 0-1.3231-.0229-1.958-.0712-.7589-.056-1.5381-.1475-2.2768-.2721a22.9485 22.9485 0 01-1.323-.267v28.0712a22.4048 22.4048 0 005.5654.6561 29.9427 29.9427 0 007.3362-.9435 29.8087 29.8087 0 007.7864-3.1659V21.0496a31.7668 31.7668 0 01-7.4171 2.8938 31.4682 31.4682 0 01-7.7131.9892zm11.2242.4857l1.012-.3408v22.1488l-.433.2085a27.7462 27.7462 0 01-5.1728 1.8589 26.8836 26.8836 0 01-6.6203.8569c-.6678 0-1.3306-.0279-1.9732-.0839l-.6931-.061V27.2288l.807.0534c.5869.0382 1.194.056 1.8542.056a34.2628 34.2628 0 008.4063-1.0782 44.4953 44.4953 0 002.8129-.8417zM67.7373 61.2123a1.4923 1.4923 0 00-.5148-.3478 1.4859 1.4859 0 00-.611-.1074 1.674 1.674 0 00-.6501.122 1.5032 1.5032 0 00-.506.3332 1.464 1.464 0 00-.3263.5085 1.652 1.652 0 00-.1164.6281v3.7941c-.009.2673.042.5333.1493.7781.0896.1944.2188.3677.3795.5086.1516.1276.3296.2197.5211.2695.1845.0519.3751.0784.5666.0789a1.4179 1.4179 0 00.6122-.1323 1.5966 1.5966 0 00.506-.3509 1.6501 1.6501 0 00.3314-.5086 1.5316 1.5316 0 00.1214-.6052v-.4247h-.9917v.3383a.8817.8817 0 01-.0581.3382.6089.6089 0 01-.1442.2136.6076.6076 0 01-.2075.1093.6968.6968 0 01-.2074.0356.5043.5043 0 01-.4655-.2034.8984.8984 0 01-.1315-.5086v-3.5372a1.2078 1.2078 0 01.1214-.5671.5067.5067 0 01.2102-.1844.5028.5028 0 01.2755-.0444.5256.5256 0 01.2475.052.5288.5288 0 01.1952.1616.8058.8058 0 01.1644.5086v.328h.9816V62.41a1.7862 1.7862 0 00-.1215-.6637 1.562 1.562 0 00-.3313-.534zM73.6289 61.1692a1.7652 1.7652 0 00-1.1282-.417 1.7366 1.7366 0 00-.592.1068 1.6058 1.6058 0 00-.5236.3102 1.5597 1.5597 0 00-.3846.5315 1.7718 1.7718 0 00-.1442.7349v3.6389c-.0068.256.0424.5104.1442.7451.0898.1957.221.3693.3846.5086.1516.1407.3296.2497.5236.3204.1897.0698.39.1059.592.1068a1.7138 1.7138 0 00.5919-.1068 1.656 1.656 0 00.5363-.3204 1.5546 1.5546 0 00.3744-.5086 1.754 1.754 0 00.1442-.7451v-3.6389a1.7702 1.7702 0 00-.1442-.7349 1.6411 1.6411 0 00-.3744-.5315zm-.4629 4.9053a.6524.6524 0 01-.1973.5264.7267.7267 0 01-.4668.17.7264.7264 0 01-.4667-.17.6526.6526 0 01-.1973-.5264v-3.6389a.6526.6526 0 01.1973-.5264.7264.7264 0 01.4667-.17.7267.7267 0 01.4668.17.6524.6524 0 01.1973.5264v3.6389zM81.3673 67.6993v-6.8888h-.9537l-1.2522 3.6466h-.0177l-1.2624-3.6466h-.9436v6.8888h.9841v-4.1907h.0177l.9638 2.9625h.4908l.9714-2.9625h.0177v4.1907h.9841zM86.9579 61.2938a1.3658 1.3658 0 00-.5565-.3764 2.1842 2.1842 0 00-.7134-.1068h-1.4622v6.8888h.9816V65.009h.5059c.3063.0139.611-.0508.8854-.1882a1.4299 1.4299 0 00.5388-.5264 1.6467 1.6467 0 00.2252-.6001 4.8985 4.8985 0 00.0531-.7832 3.9324 3.9324 0 00-.0961-.9841 1.4662 1.4662 0 00-.3618-.6332zm-.5059 2.1004a.8679.8679 0 01-.0911.3586.5527.5527 0 01-.253.2416 1.007 1.007 0 01-.4629.0864h-.4478v-2.342h.506a.9413.9413 0 01.4427.0865.5555.5555 0 01.2302.2542c.0536.1211.0829.2516.086.384v.4578c0 .1602.0101.3254 0 .4729h-.0101zM91.6077 60.8105h-.8045l-1.5178 6.8888h.9815l.2884-1.48h1.3382l.2884 1.48h.9816l-1.5558-6.8888zm-.9057 4.4705l.4832-2.4972h.0177l.4807 2.4972h-.9816zM97.9496 64.9606h-.0177l-1.4825-4.1501h-.9435v6.8888h.9815v-4.1424h.0202l1.5002 4.1424h.9233v-6.8888h-.9815v4.1501zM103.948 60.8105l-.79 2.7388h-.02l-.789-2.7388h-1.04l1.348 3.9772v2.9116h.982v-2.9116l1.348-3.9772h-1.039zM65 69.6447h.4731v1.3273h.3212v-1.3273h.4706v-.2721H65v.2721zM68.9767 69.3726l-.6198 1.5994h.3415l.1316-.3636h.6375l.1366.3636h.3491l-.635-1.5994h-.3415zm-.0506.9663l.2176-.5925.2175.5925h-.4351zM72.9079 70.3821h.3694v.206a.6128.6128 0 01-.3795.1348.4036.4036 0 01-.339-.1526.6692.6692 0 01-.1189-.417c0-.356.1543-.534.4604-.534a.3374.3374 0 01.2277.0598.3407.3407 0 01.1341.1944l.3162-.061c-.0683-.3128-.2934-.4704-.678-.4704a.8043.8043 0 00-.559.206.783.783 0 00-.2302.6153.872.872 0 00.2049.6002.7732.7732 0 00.6071.2339.9607.9607 0 00.678-.2543v-.6306h-.6932v.2695zM76.9227 69.3726h-.3238v1.5994h1.1206V70.7h-.7968v-1.3274zM80.3175 69.3726h-.3238v1.5994h.3238v-1.5994zM83.6364 70.4406l-.6552-1.068h-.3137v1.5994h.301v-1.0451l.6426 1.0451h.3212v-1.5994h-.2959v1.068zM86.6368 70.2677h.7969v-.2721h-.7969v-.3509h.8576v-.2721H86.313v1.5994h1.2143V70.7h-.8905v-.4323zM93.9121 70.0032h-.6299v-.6306h-.3213v1.5994h.3213v-.6992h.6299v.6992h.3213v-1.5994h-.3213v.6306zM96.9302 70.2677h.7994v-.2721h-.7994v-.3509h.8601v-.2721h-1.1814v1.5994h1.2117V70.7h-.8904v-.4323zM101.023 70.2676c.279-.0432.42-.1907.42-.445a.3799.3799 0 00-.03-.1996.3725.3725 0 00-.127-.1564.9034.9034 0 00-.468-.0941h-.678v1.5995h.322v-.6688h.063a.4334.4334 0 01.2.0356.337.337 0 01.114.117l.349.5086h.384l-.195-.3128a1.11 1.11 0 00-.354-.384zm-.324-.2212h-.237v-.4018h.253c.11-.0089.221.004.326.0381a.2117.2117 0 01.054.0752.204.204 0 01.016.0913.2134.2134 0 01-.024.0893.213.213 0 01-.061.0697.915.915 0 01-.327.0382zM104.109 70.2677h.797v-.2721h-.797v-.3509h.861v-.2721h-1.184v1.5994H105V70.7h-.891v-.4323z" fill="#AFB1B8"/></svg>

<svg width="170" height="90" viewBox="0 0 170 90" fill="none" xmlns="http://www.w3.org/2000/svg">
<rect x="0.5" y="0.5" width="169" height="89" rx="3.5" stroke="#AFB1B8"/>
<path d="M81.9769 21.9345H82.1135C82.3665 21.9345 82.6397 21.9599 82.9104 21.9828C84.103 22.067 85.2873 22.2455 86.452 22.5168V19.6535C85.2527 19.3526 84.0296 19.1578 82.7965 19.0712C82.3285 19.0356 81.8302 19.0127 81.3192 19H80.8917C78.4168 19.0093 75.9526 19.3271 73.5554 19.946C70.8252 20.6269 68.2046 21.6928 65.7715 23.1119V51.5086C68.1142 50.2357 70.607 49.2643 73.1912 48.6173C75.2315 48.0967 77.3174 47.7765 79.4193 47.6612H79.5028C79.8545 47.6434 80.2061 47.6332 80.5678 47.6306V44.7216C77.8366 44.7567 75.1192 45.1178 72.4727 45.7972C71.4937 46.0515 70.5476 46.3261 69.6597 46.6313L68.6478 46.9746V24.8334L69.0804 24.6249C72.3816 23.0595 75.9521 22.1486 79.5964 21.9421C79.6267 21.9399 79.6572 21.9399 79.6875 21.9421C80.0897 21.9218 80.4945 21.9116 80.8917 21.9116H81.3268H81.347C81.557 21.9167 81.7669 21.9218 81.9769 21.9345Z" fill="#AFB1B8"/>
<path d="M89.1108 24.9326C88.4455 24.9326 87.7877 24.9097 87.1528 24.8614C86.3939 24.8054 85.6147 24.7139 84.876 24.5893C84.4257 24.513 83.983 24.4215 83.553 24.3223V52.3935C85.3737 52.8443 87.2433 53.0647 89.1184 53.0496C91.5931 53.0395 94.0571 52.7227 96.4546 52.1061C99.1853 51.4243 101.807 50.3585 104.241 48.9402V21.0496C101.899 22.3218 99.4068 23.294 96.8239 23.9434C94.3031 24.5908 91.7125 24.9231 89.1108 24.9326ZM100.335 25.4183L101.347 25.0775V47.2263L100.914 47.4348C99.2552 48.2243 97.5223 48.8469 95.7412 49.2937C93.5781 49.8533 91.3544 50.1412 89.1209 50.1506C88.4531 50.1506 87.7903 50.1227 87.1477 50.0667L86.4546 50.0057V47.3178V27.2288L87.2616 27.2822C87.8485 27.3204 88.4556 27.3382 89.1158 27.3382C91.9514 27.3281 94.7749 26.966 97.5221 26.26C98.4657 26.0108 99.4042 25.7311 100.335 25.4183Z" fill="#AFB1B8"/>
<path d="M67.7373 61.2123C67.5918 61.0614 67.4164 60.9429 67.2225 60.8645C67.0286 60.7861 66.8204 60.7495 66.6115 60.7571C66.3889 60.7541 66.1679 60.7956 65.9614 60.8791C65.772 60.9546 65.5999 61.0679 65.4554 61.2123C65.3126 61.3571 65.2014 61.5303 65.1291 61.7208C65.0498 61.9205 65.0103 62.1339 65.0127 62.3489V66.143C65.0037 66.4103 65.0547 66.6763 65.162 66.9211C65.2516 67.1155 65.3808 67.2888 65.5415 67.4297C65.6931 67.5573 65.8711 67.6494 66.0626 67.6992C66.2471 67.7511 66.4377 67.7776 66.6292 67.7781C66.8405 67.7802 67.0497 67.735 67.2414 67.6458C67.4311 67.5629 67.6029 67.4437 67.7474 67.2949C67.8883 67.1475 68.0006 66.975 68.0788 66.7863C68.1599 66.595 68.2012 66.3891 68.2002 66.1811V65.7564H67.2085V66.0947C67.2115 66.2101 67.1917 66.3251 67.1504 66.4329C67.1181 66.5136 67.0689 66.5865 67.0062 66.6465C66.9447 66.6961 66.8743 66.7332 66.7987 66.7558C66.7318 66.7781 66.6618 66.7901 66.5913 66.7914C66.5028 66.8017 66.4131 66.7883 66.3313 66.7526C66.2496 66.7169 66.1787 66.6601 66.1258 66.588C66.0323 66.4355 65.9865 66.2583 65.9943 66.0794V62.5422C65.9881 62.3461 66.0298 62.1514 66.1157 61.9751C66.1672 61.8951 66.24 61.8311 66.3259 61.7907C66.4118 61.7502 66.5072 61.7348 66.6014 61.7463C66.6869 61.7432 66.7718 61.7611 66.8489 61.7983C66.926 61.8355 66.993 61.8909 67.0441 61.9599C67.1551 62.1056 67.2131 62.285 67.2085 62.4685V62.7965H68.1901V62.41C68.1921 62.183 68.1509 61.9577 68.0686 61.7463C67.9954 61.5475 67.8826 61.3658 67.7373 61.2123Z" fill="#AFB1B8"/>
<path d="M73.6289 61.1692C73.3127 60.9022 72.9136 60.7547 72.5007 60.7522C72.2987 60.7531 72.0984 60.7892 71.9087 60.859C71.7161 60.928 71.5384 61.0333 71.3851 61.1692C71.2208 61.3169 71.0897 61.4981 71.0005 61.7007C70.9006 61.9325 70.8515 62.1831 70.8563 62.4356V66.0745C70.8495 66.3305 70.8987 66.5849 71.0005 66.8196C71.0903 67.0153 71.2215 67.1889 71.3851 67.3282C71.5367 67.4689 71.7147 67.5779 71.9087 67.6486C72.0984 67.7184 72.2987 67.7545 72.5007 67.7554C72.7027 67.755 72.9031 67.7188 73.0926 67.6486C73.29 67.5769 73.4719 67.4681 73.6289 67.3282C73.7871 67.1862 73.9145 67.0131 74.0033 66.8196C74.1051 66.5849 74.1544 66.3305 74.1475 66.0745V62.4356C74.1524 62.1831 74.1032 61.9325 74.0033 61.7007C73.9151 61.5002 73.7878 61.3195 73.6289 61.1692ZM73.166 66.0745C73.1743 66.1715 73.1609 66.2691 73.1268 66.3602C73.0926 66.4513 73.0386 66.5336 72.9687 66.6009C72.8377 66.7107 72.6725 66.7709 72.5019 66.7709C72.3313 66.7709 72.1662 66.7107 72.0352 66.6009C71.9652 66.5336 71.9112 66.4513 71.8771 66.3602C71.8429 66.2691 71.8295 66.1715 71.8379 66.0745V62.4356C71.8295 62.3386 71.8429 62.241 71.8771 62.1499C71.9112 62.0588 71.9652 61.9765 72.0352 61.9092C72.1662 61.7994 72.3313 61.7392 72.5019 61.7392C72.6725 61.7392 72.8377 61.7994 72.9687 61.9092C73.0386 61.9765 73.0926 62.0588 73.1268 62.1499C73.1609 62.241 73.1743 62.3386 73.166 62.4356V66.0745Z" fill="#AFB1B8"/>
<path d="M81.3673 67.6993V60.8105H80.4136L79.1614 64.4571H79.1437L77.8813 60.8105H76.9377V67.6993H77.9218V63.5086H77.9395L78.9033 66.4711H79.3941L80.3655 63.5086H80.3832V67.6993H81.3673Z" fill="#AFB1B8"/>
<path d="M86.9579 61.2938C86.8064 61.1238 86.6151 60.9944 86.4014 60.9174C86.1711 60.8425 85.93 60.8064 85.688 60.8106H84.2258V67.6994H85.2074V65.009H85.7133C86.0196 65.0229 86.3243 64.9582 86.5987 64.8208C86.8219 64.6969 87.0079 64.5151 87.1375 64.2944C87.2511 64.1112 87.3276 63.9073 87.3627 63.6943C87.4013 63.4351 87.4191 63.1732 87.4158 62.9111C87.4253 62.5803 87.393 62.2496 87.3197 61.927C87.2542 61.6886 87.1298 61.4708 86.9579 61.2938ZM86.452 63.3942C86.4477 63.519 86.4167 63.6413 86.3609 63.7528C86.3048 63.8587 86.2161 63.9435 86.1079 63.9944C85.9625 64.0594 85.8039 64.089 85.645 64.0808H85.1972V61.7388H85.7032C85.8555 61.7313 86.0074 61.761 86.1459 61.8253C86.2474 61.8835 86.328 61.9725 86.3761 62.0795C86.4297 62.2006 86.459 62.3311 86.4621 62.4635C86.4621 62.6085 86.4621 62.7611 86.4621 62.9213C86.4621 63.0815 86.4722 63.2467 86.4621 63.3942H86.452Z" fill="#AFB1B8"/>
<path d="M91.6077 60.8105H90.8032L89.2854 67.6993H90.2669L90.5553 66.2193H91.8935L92.1819 67.6993H93.1635L91.6077 60.8105ZM90.702 65.281L91.1852 62.7838H91.2029L91.6836 65.281H90.702Z" fill="#AFB1B8"/>
<path d="M97.9496 64.9606H97.9319L96.4494 60.8105H95.5059V67.6993H96.4874V63.5569H96.5076L98.0078 67.6993H98.9311V60.8105H97.9496V64.9606Z" fill="#AFB1B8"/>
<path d="M103.948 60.8105L103.158 63.5493H103.138L102.349 60.8105H101.309L102.657 64.7877V67.6993H103.639V64.7877L104.987 60.8105H103.948Z" fill="#AFB1B8"/>
<path d="M65 69.6447H65.4731V70.972H65.7943V69.6447H66.2649V69.3726H65V69.6447Z" fill="#AFB1B8"/>
<path d="M68.9767 69.3726L68.3569 70.972H68.6984L68.83 70.6084H69.4675L69.6041 70.972H69.9532L69.3182 69.3726H68.9767ZM68.9261 70.3389L69.1437 69.7464L69.3612 70.3389H68.9261Z" fill="#AFB1B8"/>
<path d="M72.9079 70.3821H73.2773V70.5881C73.1694 70.6746 73.0358 70.722 72.8978 70.7229C72.8333 70.7265 72.7689 70.7145 72.7099 70.688C72.6509 70.6614 72.5991 70.6211 72.5588 70.5703C72.474 70.4485 72.4322 70.3017 72.4399 70.1533C72.4399 69.7973 72.5942 69.6193 72.9003 69.6193C72.9809 69.6112 73.0617 69.6325 73.128 69.6791C73.1944 69.7257 73.2419 69.7947 73.2621 69.8735L73.5783 69.8125C73.51 69.4997 73.2849 69.3421 72.9003 69.3421C72.6947 69.3366 72.4947 69.4103 72.3413 69.5481C72.2607 69.6276 72.1983 69.7239 72.1586 69.8302C72.1188 69.9365 72.1026 70.0502 72.1111 70.1634C72.1017 70.3823 72.1749 70.5966 72.316 70.7636C72.3943 70.8444 72.4892 70.9071 72.594 70.9475C72.6988 70.9879 72.8111 71.0049 72.9231 70.9975C73.1734 71.0045 73.4165 70.9133 73.6011 70.7432V70.1126H72.9079V70.3821Z" fill="#AFB1B8"/>
<path d="M76.9227 69.3726H76.5989V70.972H77.7195V70.7H76.9227V69.3726Z" fill="#AFB1B8"/>
<path d="M80.3175 69.3726H79.9937V70.972H80.3175V69.3726Z" fill="#AFB1B8"/>
<path d="M83.6364 70.4406L82.9812 69.3726H82.6675V70.972H82.9685V69.9269L83.6111 70.972H83.9323V69.3726H83.6364V70.4406Z" fill="#AFB1B8"/>
<path d="M86.6368 70.2677H87.4337V69.9956H86.6368V69.6447H87.4944V69.3726H86.313V70.972H87.5273V70.7H86.6368V70.2677Z" fill="#AFB1B8"/>
<path d="M93.9121 70.0032H93.2822V69.3726H92.9609V70.972H93.2822V70.2728H93.9121V70.972H94.2334V69.3726H93.9121V70.0032Z" fill="#AFB1B8"/>
<path d="M96.9302 70.2677H97.7296V69.9956H96.9302V69.6447H97.7903V69.3726H96.6089V70.972H97.8206V70.7H96.9302V70.2677Z" fill="#AFB1B8"/>
<path d="M101.023 70.2676C101.302 70.2244 101.443 70.0769 101.443 69.8226C101.451 69.7546 101.441 69.6856 101.413 69.623C101.386 69.5603 101.342 69.5063 101.286 69.4666C101.141 69.3938 100.98 69.3614 100.818 69.3725H100.14V70.972H100.462V70.3032H100.525C100.593 70.299 100.662 70.3112 100.725 70.3388C100.772 70.3678 100.811 70.4079 100.839 70.4558L101.188 70.9644H101.572L101.377 70.6516C101.291 70.4972 101.17 70.3656 101.023 70.2676ZM100.699 70.0464H100.462V69.6446H100.715C100.825 69.6357 100.936 69.6486 101.041 69.6827C101.064 69.7034 101.083 69.7291 101.095 69.7579C101.107 69.7867 101.113 69.8179 101.111 69.8492C101.11 69.8804 101.101 69.911 101.087 69.9385C101.072 69.966 101.051 69.9899 101.026 70.0082C100.92 70.0406 100.81 70.0535 100.699 70.0464Z" fill="#AFB1B8"/>
<path d="M104.109 70.2677H104.906V69.9956H104.109V69.6447H104.97V69.3726H103.786V70.972H105V70.7H104.109V70.2677Z" fill="#AFB1B8"/>
</svg>
